!!! OTL: Berkowitz1
!!! Chapter: 1
!!! Section: I
!!! Page: 5
!!! Mode: 
!!! Encoder: DJB
**kern
*staff1
*I"Piano
=1-
*clefG2
*k[]
*C:
*M4/4
2c/
2d/
=2
1e
=3
2d/
2e/
=4
1f
=5
2g/
2f/
=6
2e/
2d/
=7
4e/
4d/
4e/
4f/
=8
1g
=9
2g/
2f/
=10
2e/
2d/
=11
4c/
4d/
4e/
4d/
=12
1c
==
*-
